X:1
T:Lord Ronald
M:3/4
L:1/4
K:G
 G| G B B| d- c A| A G G| G2B/2-G/2| G B d| g- d B| c d e| d2 d| d e f|\
 g d B/2B/2| c d e| d2 G/2G/2| B BB/2-B/2| d c A| A G G| G2||
